assets/svg/Mail.svg

<svg width="48" height="48" viewBox="0 0 48 48" fill="none" xmlns="http://www.w3.org/2000/svg">
<g clip-path="url(#clip0_9_52)">
<path fill-rule="evenodd" clip-rule="evenodd" d="M36.75 0H11.25C5.0368 0 0 5.0368 0 11.25V36.75C0 42.9632 5.0368 48 11.25 48H36.75C42.9632 48 48 42.9632 48 36.75V11.25C48 5.0368 42.9632 0 36.75 0ZM42 16V32.7052C42.0001 34.0557 41.4738 35.3553 40.5289 36.3379C39.584 37.3205 38.2918 37.9119 36.9168 37.9912L36.6 38H11.4C10.0226 38.0001 8.69727 37.4841 7.69513 36.5575C6.69299 35.631 6.08981 34.364 6.009 33.0158L6 32.7052V16L23.001 27.1138L23.2098 27.2303C23.4559 27.3482 23.7261 27.4095 24 27.4095C24.2739 27.4095 24.5441 27.3482 24.7902 27.2303L24.999 27.1138L42 16ZM41 12.5623C40.0606 11.0235 38.3757 10 36.4542 10H11.5458L11.1882 10.0126C10.3392 10.0699 9.5162 10.3312 8.78766 10.7748C8.05912 11.2183 7.4462 11.8312 7 12.5623L24 24L41 12.5623Z" fill="#FFC526"/>
</g>
<defs>
<clipPath id="clip0_9_52">
<rect width="48" height="48" fill="white"/>
</clipPath>
</defs>
</svg>

<?xml version="1.0" encoding="utf-8"?>
<!-- Generator: Adobe Illustrator 28.3.0, SVG Export Plug-In . SVG Version: 6.00 Build 0)  -->
<svg version="1.1" id="Capa_1" xmlns="http://www.w3.org/2000/svg" xmlns:xlink="http://www.w3.org/1999/xlink" x="0px" y="0px"
	 viewBox="0 0 48 48" style="enable-background:new 0 0 48 48;" xml:space="preserve">
<style type="text/css">
	.st0{fill-rule:evenodd;clip-rule:evenodd;fill:#FFC526;}
</style>
<path class="st0" d="M36.8,0H11.2C5,0,0,5,0,11.2v25.5C0,43,5,48,11.2,48h25.5C43,48,48,43,48,36.8V11.2C48,5,43,0,36.8,0z M42,16
	v16.7c0,1.4-0.5,2.7-1.5,3.6c-0.9,1-2.2,1.6-3.6,1.7h-0.3H11.4c-1.4,0-2.7-0.5-3.7-1.4S6.1,34.4,6,33.1v-0.3V16l17,11.1l0.2,0.1
	c0.2,0.1,0.5,0.2,0.8,0.2s0.5-0.1,0.8-0.2l0.2-0.1L42,16z M41,12.6C40.1,11,38.4,10,36.5,10h-25h-0.4c-0.8,0.1-1.7,0.3-2.4,0.8
	c-0.7,0.4-1.3,1.1-1.8,1.8L24,24L41,12.6z"/>
</svg>
